icon-themes/breeze_svg/cmd/sc_helplinesuse.svg

<svg viewBox="0 0 16 16" xmlns="http://www.w3.org/2000/svg">/&gt;<path d="m11.5 2c-.831 0-1.5.6690021-1.5 1.5v1.5h-1v3h5v-3h-1v-1.5c0-.8309979-.669-1.5-1.5-1.5zm-9.5 1v1h1v-1zm9.5 0c.277 0 .5.2229507.5.5v1.5h-1v-1.5c0-.2770493.223-.5.5-.5zm-9.5 2v1h1v-1zm0 2v1h1v-1zm0 2v1h1v-1zm0 2v1h1v-1zm0 2v1h1v-1zm2 0v1h1v-1zm2 0v1h1v-1zm2 0v1h1v-1zm2 0v1h1v-1zm2 0v1h1v-1z" fill="#4d4d4d"/></svg>

<svg xmlns="http://www.w3.org/2000/svg" viewBox="0 0 16 16">
     />
 <path 
     style="fill:#4d4d4d" 
     d="M 11.5 2 C 10.669 2 10 2.6690021 10 3.5 L 10 5 L 9 5 L 9 8 L 14 8 L 14 5 L 13 5 L 13 3.5 C 13 2.6690021 12.331 2 11.5 2 z M 2 3 L 2 4 L 3 4 L 3 3 L 2 3 z M 11.5 3 C 11.777 3 12 3.2229507 12 3.5 L 12 5 L 11 5 L 11 3.5 C 11 3.2229507 11.223 3 11.5 3 z M 2 5 L 2 6 L 3 6 L 3 5 L 2 5 z M 2 7 L 2 8 L 3 8 L 3 7 L 2 7 z M 2 9 L 2 10 L 3 10 L 3 9 L 2 9 z M 2 11 L 2 12 L 3 12 L 3 11 L 2 11 z M 2 13 L 2 14 L 3 14 L 3 13 L 2 13 z M 4 13 L 4 14 L 5 14 L 5 13 L 4 13 z M 6 13 L 6 14 L 7 14 L 7 13 L 6 13 z M 8 13 L 8 14 L 9 14 L 9 13 L 8 13 z M 10 13 L 10 14 L 11 14 L 11 13 L 10 13 z M 12 13 L 12 14 L 13 14 L 13 13 L 12 13 z "
     />
 </svg>
